background/bg_git_circuit_primary.svg

<svg xmlns="http://www.w3.org/2000/svg" width="1920" height="1080" preserveAspectRatio="none"><g mask="url(&quot;#a&quot;)" fill="none"><path fill="url(&quot;#b&quot;)" d="M0 0h1920v1080H0z"/><g mask="url(&quot;#c&quot;)"><path d="M-24 552h96" stroke="rgba(255, 215, 0, 1)" stroke-width="8"/><path d="M60 552a12 12 0 1 0 24 0 12 12 0 1 0-24 0z" fill="rgba(255, 215, 0, 1)"/><path d="m216 552 48-48m-192 0h144m-240 0h96l48 48h144" stroke="rgba(255, 196, 0, 1)" stroke-width="8"/><path d="M252 552a12 12 0 1 0 24 0 12 12 0 1 0-24 0zm0-48a12 12 0 1 0 24 0 12 12 0 1 0-24 0zm-48 0a12 12 0 1 0 24 0 12 12 0 1 0-24 0z" fill="rgba(255, 196, 0, 1)"/><path d="m312 600 48-48m-384 48h384" stroke="rgba(255, 196, 0, 1)" stroke-width="8"/><path d="M348 600a12 12 0 1 0 24 0 12 12 0 1 0-24 0zm0-48a12 12 0 1 0 24 0 12 12 0 1 0-24 0z" fill="rgba(255, 196, 0, 1)"/><path d="m264 456 48-48h144m-480 48h384" stroke="rgba(255, 196, 0, 1)" stroke-width="8"/><path d="M348 456a12 12 0 1 0 24 0 12 12 0 1 0-24 0zm96-48a12 12 0 1 0 24 0 12 12 0 1 0-24 0z" fill="rgba(255, 196, 0, 1)"/><path d="M-24 648h240" stroke="rgba(255, 196, 0, 1)" stroke-width="8"/><path d="M204 648a12 12 0 1 0 24 0 12 12 0 1 0-24 0z" fill="rgba(255, 196, 0, 1)"/><path d="m72 408 48-48m48 48 48-48h96M24 408l48-48 48-48h48m-192 96h240" stroke="rgba(255, 215, 0, 1)" stroke-width="8"/><path d="M204 408a12 12 0 1 0 24 0 12 12 0 1 0-24 0zm-96-48a12 12 0 1 0 24 0 12 12 0 1 0-24 0zm192 0a12 12 0 1 0 24 0 12 12 0 1 0-24 0zm-144-48a12 12 0 1 0 24 0 12 12 0 1 0-24 0z" fill="rgba(255, 215, 0, 1)"/><path d="m264 744 48 48m-144-96h144m0 48h144m-480-48h192l48 48h96l48 48h48l48 48" stroke="rgba(255, 196, 0, 1)" stroke-width="8"/><path d="M444 840a12 12 0 1 0 24 0 12 12 0 1 0-24 0zm-144-48a12 12 0 1 0 24 0 12 12 0 1 0-24 0zm0-96a12 12 0 1 0 24 0 12 12 0 1 0-24 0zm144 48a12 12 0 1 0 24 0 12 12 0 1 0-24 0z" fill="rgba(255, 196, 0, 1)"/><path d="m72 744 48 48m-144-48h192" stroke="rgba(255, 215, 0, 1)" stroke-width="8"/><path d="M156 744a12 12 0 1 0 24 0 12 12 0 1 0-24 0zm-48 48a12 12 0 1 0 24 0 12 12 0 1 0-24 0z" fill="rgba(255, 215, 0, 1)"/><path d="M-24 312h48" stroke="rgba(255, 215, 0, 1)" stroke-width="8"/><path d="M12 312a12 12 0 1 0 24 0 12 12 0 1 0-24 0z" fill="rgba(255, 215, 0, 1)"/></g></g><defs><mask id="a"><path fill="#fff" d="M0 0h1920v1080H0z"/></mask><mask id="c"><path fill="#fff" d="M0 0h1920v1080H0z"/><path d="M66 552a6 6 0 1 0 12 0 6 6 0 1 0-12 0zM258 552a6 6 0 1 0 12 0 6 6 0 1 0-12 0zm0-48a6 6 0 1 0 12 0 6 6 0 1 0-12 0zm-48 0a6 6 0 1 0 12 0 6 6 0 1 0-12 0zM354 600a6 6 0 1 0 12 0 6 6 0 1 0-12 0zm0-48a6 6 0 1 0 12 0 6 6 0 1 0-12 0zM354 456a6 6 0 1 0 12 0 6 6 0 1 0-12 0zm96-48a6 6 0 1 0 12 0 6 6 0 1 0-12 0zM210 648a6 6 0 1 0 12 0 6 6 0 1 0-12 0zM210 408a6 6 0 1 0 12 0 6 6 0 1 0-12 0zm-96-48a6 6 0 1 0 12 0 6 6 0 1 0-12 0zm192 0a6 6 0 1 0 12 0 6 6 0 1 0-12 0zm-144-48a6 6 0 1 0 12 0 6 6 0 1 0-12 0zM450 840a6 6 0 1 0 12 0 6 6 0 1 0-12 0zm-144-48a6 6 0 1 0 12 0 6 6 0 1 0-12 0zm0-96a6 6 0 1 0 12 0 6 6 0 1 0-12 0zm144 48a6 6 0 1 0 12 0 6 6 0 1 0-12 0zM162 744a6 6 0 1 0 12 0 6 6 0 1 0-12 0zm-48 48a6 6 0 1 0 12 0 6 6 0 1 0-12 0zM18 312a6 6 0 1 0 12 0 6 6 0 1 0-12 0z"/></mask><linearGradient x1="10.94%" y1="-19.44%" x2="89.06%" y2="119.44%" gradientUnits="userSpaceOnUse" id="b"><stop stop-color="#0e2a47" offset="0"/><stop stop-color="#00459e" offset="1"/></linearGradient></defs></svg>

<svg xmlns="http://www.w3.org/2000/svg" version="1.1" xmlns:xlink="http://www.w3.org/1999/xlink" xmlns:svgjs="http://svgjs.dev/svgjs" width="1920" height="1080" preserveAspectRatio="none" viewBox="0 0 1920 1080"><g mask="url(&quot;#SvgjsMask1266&quot;)" fill="none"><rect width="1920" height="1080" x="0" y="0" fill="url(&quot;#SvgjsLinearGradient1267&quot;)"></rect><g mask="url(&quot;#SvgjsMask1268&quot;)"><path d="M-24 552L24 552L72 552" stroke="rgba(255, 215, 0, 1)" stroke-width="8"></path><path d="M60 552 a12 12 0 1 0 24 0 a12 12 0 1 0 -24 0z" fill="rgba(255, 215, 0, 1)"></path><path d="M216 552L264 504M72 504L120 504L168 504L216 504M-24 504L24 504L72 504L120 552L168 552L216 552L264 552" stroke="rgba(255, 196, 0, 1)" stroke-width="8"></path><path d="M252 552 a12 12 0 1 0 24 0 a12 12 0 1 0 -24 0zM252 504 a12 12 0 1 0 24 0 a12 12 0 1 0 -24 0zM204 504 a12 12 0 1 0 24 0 a12 12 0 1 0 -24 0z" fill="rgba(255, 196, 0, 1)"></path><path d="M312 600L360 552M-24 600L24 600L72 600L120 600L168 600L216 600L264 600L312 600L360 600" stroke="rgba(255, 196, 0, 1)" stroke-width="8"></path><path d="M348 600 a12 12 0 1 0 24 0 a12 12 0 1 0 -24 0zM348 552 a12 12 0 1 0 24 0 a12 12 0 1 0 -24 0z" fill="rgba(255, 196, 0, 1)"></path><path d="M264 456L312 408L360 408L408 408L456 408M-24 456L24 456L72 456L120 456L168 456L216 456L264 456L312 456L360 456" stroke="rgba(255, 196, 0, 1)" stroke-width="8"></path><path d="M348 456 a12 12 0 1 0 24 0 a12 12 0 1 0 -24 0zM444 408 a12 12 0 1 0 24 0 a12 12 0 1 0 -24 0z" fill="rgba(255, 196, 0, 1)"></path><path d="M-24 648L24 648L72 648L120 648L168 648L216 648" stroke="rgba(255, 196, 0, 1)" stroke-width="8"></path><path d="M204 648 a12 12 0 1 0 24 0 a12 12 0 1 0 -24 0z" fill="rgba(255, 196, 0, 1)"></path><path d="M72 408L120 360M168 408L216 360L264 360L312 360M24 408L72 360L120 312L168 312M-24 408L24 408L72 408L120 408L168 408L216 408" stroke="rgba(255, 215, 0, 1)" stroke-width="8"></path><path d="M204 408 a12 12 0 1 0 24 0 a12 12 0 1 0 -24 0zM108 360 a12 12 0 1 0 24 0 a12 12 0 1 0 -24 0zM300 360 a12 12 0 1 0 24 0 a12 12 0 1 0 -24 0zM156 312 a12 12 0 1 0 24 0 a12 12 0 1 0 -24 0z" fill="rgba(255, 215, 0, 1)"></path><path d="M264 744L312 792M168 696L216 696L264 696L312 696M312 744L360 744L408 744L456 744M-24 696L24 696L72 696L120 696L168 696L216 744L264 744L312 744L360 792L408 792L456 840" stroke="rgba(255, 196, 0, 1)" stroke-width="8"></path><path d="M444 840 a12 12 0 1 0 24 0 a12 12 0 1 0 -24 0zM300 792 a12 12 0 1 0 24 0 a12 12 0 1 0 -24 0zM300 696 a12 12 0 1 0 24 0 a12 12 0 1 0 -24 0zM444 744 a12 12 0 1 0 24 0 a12 12 0 1 0 -24 0z" fill="rgba(255, 196, 0, 1)"></path><path d="M72 744L120 792M-24 744L24 744L72 744L120 744L168 744" stroke="rgba(255, 215, 0, 1)" stroke-width="8"></path><path d="M156 744 a12 12 0 1 0 24 0 a12 12 0 1 0 -24 0zM108 792 a12 12 0 1 0 24 0 a12 12 0 1 0 -24 0z" fill="rgba(255, 215, 0, 1)"></path><path d="M-24 312L24 312" stroke="rgba(255, 215, 0, 1)" stroke-width="8"></path><path d="M12 312 a12 12 0 1 0 24 0 a12 12 0 1 0 -24 0z" fill="rgba(255, 215, 0, 1)"></path></g></g><defs><mask id="SvgjsMask1266"><rect width="1920" height="1080" fill="#ffffff"></rect></mask><linearGradient x1="10.94%" y1="-19.44%" x2="89.06%" y2="119.44%" gradientUnits="userSpaceOnUse" id="SvgjsLinearGradient1267"><stop stop-color="#0e2a47" offset="0"></stop><stop stop-color="#00459e" offset="1"></stop></linearGradient><mask id="SvgjsMask1268"><rect width="1920" height="1080" fill="white"></rect><path d="M66 552 a6 6 0 1 0 12 0 a6 6 0 1 0 -12 0z" fill="black"></path><path d="M258 552 a6 6 0 1 0 12 0 a6 6 0 1 0 -12 0zM258 504 a6 6 0 1 0 12 0 a6 6 0 1 0 -12 0zM210 504 a6 6 0 1 0 12 0 a6 6 0 1 0 -12 0z" fill="black"></path><path d="M354 600 a6 6 0 1 0 12 0 a6 6 0 1 0 -12 0zM354 552 a6 6 0 1 0 12 0 a6 6 0 1 0 -12 0z" fill="black"></path><path d="M354 456 a6 6 0 1 0 12 0 a6 6 0 1 0 -12 0zM450 408 a6 6 0 1 0 12 0 a6 6 0 1 0 -12 0z" fill="black"></path><path d="M210 648 a6 6 0 1 0 12 0 a6 6 0 1 0 -12 0z" fill="black"></path><path d="M210 408 a6 6 0 1 0 12 0 a6 6 0 1 0 -12 0zM114 360 a6 6 0 1 0 12 0 a6 6 0 1 0 -12 0zM306 360 a6 6 0 1 0 12 0 a6 6 0 1 0 -12 0zM162 312 a6 6 0 1 0 12 0 a6 6 0 1 0 -12 0z" fill="black"></path><path d="M450 840 a6 6 0 1 0 12 0 a6 6 0 1 0 -12 0zM306 792 a6 6 0 1 0 12 0 a6 6 0 1 0 -12 0zM306 696 a6 6 0 1 0 12 0 a6 6 0 1 0 -12 0zM450 744 a6 6 0 1 0 12 0 a6 6 0 1 0 -12 0z" fill="black"></path><path d="M162 744 a6 6 0 1 0 12 0 a6 6 0 1 0 -12 0zM114 792 a6 6 0 1 0 12 0 a6 6 0 1 0 -12 0z" fill="black"></path><path d="M18 312 a6 6 0 1 0 12 0 a6 6 0 1 0 -12 0z" fill="black"></path></mask></defs></svg>
